images_sukapura_svg/cmd/sc_exportto.svg

<svg viewBox="0 0 16 16" xmlns="http://www.w3.org/2000/svg" xmlns:xlink="http://www.w3.org/1999/xlink"><linearGradient id="a" gradientUnits="userSpaceOnUse" x1="88" x2="88" y1="7" y2="0"><stop offset="0" stop-color="#0040dd"/><stop offset="1" stop-color="#0a84ff"/></linearGradient><linearGradient id="b" gradientUnits="userSpaceOnUse" x1="10" x2="11.500001" y1="4" y2="2.499999"><stop offset="0" stop-color="#fff"/><stop offset=".77967989" stop-color="#f1f1f1"/><stop offset="1" stop-color="#d5d5d5"/></linearGradient><radialGradient id="c" cx="10.994179" cy="4.42844" gradientTransform="matrix(1.4 .00000004 -.00000001 1.2 -4.39185 -2.314129)" gradientUnits="userSpaceOnUse" r="5"><stop offset="0" stop-color="#d7d7d7"/><stop offset=".49894297" stop-color="#f7f7f7"/><stop offset="1" stop-color="#fff"/></radialGradient><path d="m3 1v14h10v-11.2949219l-2.695312-2.7050781z" fill="url(#c)"/><path d="m3 0c-.554 0-1 .446-1 1v14c0 .554.446 1 1 1h10c.554 0 1-.446 1-1v-10.5-.8632812l-3.636719-3.6367188h-.863281zm0 1h6v3.5c0 .277.223.5.5.5h3.5v10h-10zm7 0 3 3h-3z" fill="#98989d"/><path d="m10 1 3 3h-3z" fill="url(#b)"/><g fill-rule="evenodd"><path d="m12.492188 6c-.859119.00115-1.608652.8729976-1.480469 1.7226562l-.011719-.1484374v.4257812h-5.5c-.813468 0-1.5.686532-1.5 1.5v.857422c-.0085832.092587-.008504.182796 0 .27539v.867188c0 .813468.686532 1.5 1.5 1.5h5.5v.390625l.029297-.238281c-.157588.640741.166356 1.36821.748047 1.679687.581691.311478 1.36657.177749 1.8125-.308593l.410156-.410157v-7.113281c0-.0352909.012641-.066421.019531-.0996094l-.451172-.4492187-.003906-.0019531c-.279185-.2838196-.674146-.4503378-1.072265-.4492188z" fill="#fff" fill-opacity=".784314"/><path d="m12.494141 7a.49967901.49967901 0 0 0 -.494141.5742188v1.4257812h-6.5c-.277 0-.5.223-.5.5v.857422a.49967901.49967901 0 0 0 0 .27539v.867188c0 .277.223.5.5.5h6.5v1.390625a.49967901.49967901 0 0 0 .853516.457031l2.917968-2.917968a.49967901.49967901 0 0 0 .003907-.867188l-2.921875-2.9121094a.49967901.49967901 0 0 0 -.359375-.1503906z" fill="url(#a)"/></g></svg>

<?xml version="1.0" encoding="UTF-8" standalone="no"?>
<svg
   xmlns:dc="http://purl.org/dc/elements/1.1/"
   xmlns:cc="http://creativecommons.org/ns#"
   xmlns:rdf="http://www.w3.org/1999/02/22-rdf-syntax-ns#"
   xmlns:svg="http://www.w3.org/2000/svg"
   xmlns="http://www.w3.org/2000/svg"
   xmlns:xlink="http://www.w3.org/1999/xlink"
   xmlns:sodipodi="http://sodipodi.sourceforge.net/DTD/sodipodi-0.dtd"
   xmlns:inkscape="http://www.inkscape.org/namespaces/inkscape"
   viewBox="0 0 16 16"
   version="1.1"
   id="svg22"
   sodipodi:docname="sc_exportto.svg"
   inkscape:version="0.92.3 (2405546, 2018-03-11)"
   inkscape:export-filename="/home/rizmut/Documents/Rizmut/Github/libreoffice-style-sukapura/images_sukapura/cmd/sc_exportto.png"
   inkscape:export-xdpi="96"
   inkscape:export-ydpi="96">
  <metadata
     id="metadata28">
    <rdf:RDF>
      <cc:Work
         rdf:about="">
        <dc:format>image/svg+xml</dc:format>
        <dc:type
           rdf:resource="http://purl.org/dc/dcmitype/StillImage" />
        <dc:title></dc:title>
      </cc:Work>
    </rdf:RDF>
  </metadata>
  <defs
     id="defs26">
    <linearGradient
       gradientTransform="translate(75,-7)"
       id="a-367"
       gradientUnits="userSpaceOnUse"
       x1="14"
       x2="13.79661"
       y1="22"
       y2="2.1355929">
      <stop
         offset="0"
         stop-color="#0040dd"
         id="stop2206" />
      <stop
         offset="1"
         stop-color="#0a84ff"
         id="stop2208" />
    </linearGradient>
    <linearGradient
       inkscape:collect="always"
       xlink:href="#a-367"
       id="linearGradient2150"
       x1="13"
       y1="14"
       x2="13"
       y2="7"
       gradientUnits="userSpaceOnUse" />
  </defs>
  <sodipodi:namedview
     pagecolor="#ffffff"
     bordercolor="#666666"
     borderopacity="1"
     objecttolerance="10"
     gridtolerance="10"
     guidetolerance="10"
     inkscape:pageopacity="0"
     inkscape:pageshadow="2"
     inkscape:window-width="1366"
     inkscape:window-height="685"
     id="namedview24"
     showgrid="true"
     inkscape:zoom="10.429825"
     inkscape:cx="13.279995"
     inkscape:cy="1.8351663"
     inkscape:window-x="0"
     inkscape:window-y="0"
     inkscape:window-maximized="1"
     inkscape:current-layer="svg22"
     inkscape:snap-global="true">
    <inkscape:grid
       type="xygrid"
       id="grid1519"
       spacingx="0.5"
       spacingy="0.5"
       empspacing="2" />
  </sodipodi:namedview>
  <linearGradient
     id="a"
     gradientUnits="userSpaceOnUse"
     x1="10"
     x2="11.5000006"
     y1="4"
     y2="2.4999994">
    <stop
       offset="0"
       stop-color="#fff"
       id="stop2" />
    <stop
       offset=".77967989"
       stop-color="#f1f1f1"
       id="stop4" />
    <stop
       offset="1"
       stop-color="#d5d5d5"
       id="stop6" />
  </linearGradient>
  <radialGradient
     id="b"
     cx="10.994179"
     cy="4.42844"
     gradientTransform="matrix(1.4 .00000004 -.00000001 1.2 -4.39185 -2.314129)"
     gradientUnits="userSpaceOnUse"
     r="5">
    <stop
       offset="0"
       stop-color="#d7d7d7"
       id="stop9" />
    <stop
       offset=".49894297"
       stop-color="#f7f7f7"
       id="stop11" />
    <stop
       offset="1"
       stop-color="#fff"
       id="stop13" />
  </radialGradient>
  <g
     id="g838">
    <path
       id="path16"
       fill="url(#b)"
       d="m3 1v14h10v-11.2949219l-2.695312-2.7050781z" />
    <path
       id="path18"
       fill="#98989d"
       d="m3 0c-.554 0-1 .446-1 1v14c0 .554.446 1 1 1h10c.554 0 1-.446 1-1v-10.5-.8632812l-3.636719-3.6367188h-.863281zm0 1h6v3.5c0 .277.223.5.5.5h3.5v10h-10zm7 0 3 3h-3z" />
    <path
       id="path20"
       fill="url(#a)"
       d="m10 1 3 3h-3z" />
  </g>
  <path
     style="fill:#ffffff;fill-opacity:0.78431374;fill-rule:evenodd"
     d="M 12.492188 6 C 11.633069 6.00115 10.883536 6.8729976 11.011719 7.7226562 L 11 7.5742188 L 11 8 L 5.5 8 C 4.686532 8 4 8.686532 4 9.5 L 4 10.357422 C 3.9914168 10.450009 3.991496 10.540218 4 10.632812 L 4 11.5 C 4 12.313468 4.686532 13 5.5 13 L 11 13 L 11 13.390625 L 11.029297 13.152344 C 10.871709 13.793085 11.195653 14.520554 11.777344 14.832031 C 12.359035 15.143509 13.143914 15.00978 13.589844 14.523438 L 14 14.113281 L 14 7 C 14 6.9647091 14.012641 6.933579 14.019531 6.9003906 L 13.568359 6.4511719 L 13.564453 6.4492188 C 13.285268 6.1653992 12.890307 5.998881 12.492188 6 z "
     id="path2152" />
  <path
     style="fill:url(#linearGradient2150);fill-rule:evenodd;fill-opacity:1"
     d="M 12.494141 7 A 0.49967901 0.49967901 0 0 0 12 7.5742188 L 12 9 L 5.5 9 C 5.223 9 5 9.223 5 9.5 L 5 10.357422 A 0.49967901 0.49967901 0 0 0 5 10.632812 L 5 11.5 C 5 11.777 5.223 12 5.5 12 L 12 12 L 12 13.390625 A 0.49967901 0.49967901 0 0 0 12.853516 13.847656 L 15.771484 10.929688 A 0.49967901 0.49967901 0 0 0 15.775391 10.0625 L 12.853516 7.1503906 A 0.49967901 0.49967901 0 0 0 12.494141 7 z "
     id="path6" />
</svg>
